src/assets/icons/remotes/discord.svg

<svg width="24" height="24" viewBox="0 0 24 24" fill="currentColor" xmlns="http://www.w3.org/2000/svg">
<path d="M19.6688 5.01793C19.6613 5.00668 19.6538 4.99543 19.6388 4.99168C18.21 4.33543 16.6988 3.86668 15.15 3.60043C15.135 3.59668 15.12 3.60043 15.1088 3.60418C15.0975 3.60793 15.0863 3.61918 15.0788 3.63418C14.8725 4.00543 14.685 4.39168 14.52 4.78168C12.8475 4.52668 11.1488 4.52668 9.48001 4.78168C9.31126 4.38793 9.12376 4.00543 8.91376 3.63418C8.90626 3.62293 8.89501 3.61168 8.88376 3.60418C8.87251 3.59668 8.85751 3.59668 8.84251 3.59668C7.29376 3.86293 5.7825 4.33168 4.35375 4.98793C4.3425 4.99168 4.33126 5.00293 4.32376 5.01418C1.46626 9.28168 0.682505 13.4479 1.065 17.5579C1.065 17.5692 1.06875 17.5767 1.0725 17.5879C1.07625 17.5992 1.08375 17.6029 1.09125 17.6104C2.75626 18.8442 4.61626 19.7854 6.59626 20.3929C6.61126 20.3967 6.62626 20.3967 6.63751 20.3929C6.64876 20.3892 6.66376 20.3779 6.67126 20.3667C7.09501 19.7892 7.47376 19.1742 7.79626 18.5367C7.80001 18.5292 7.80376 18.5179 7.80376 18.5067C7.80376 18.4954 7.80376 18.4879 7.80001 18.4767C7.79626 18.4654 7.79251 18.4579 7.78501 18.4542C7.77751 18.4504 7.77001 18.4429 7.75876 18.4392C7.16626 18.2104 6.58876 17.9367 6.03751 17.6179C6.02626 17.6104 6.01876 17.6029 6.01126 17.5954C6.00376 17.5879 6.00001 17.5729 6.00001 17.5617C6.00001 17.5504 6.00001 17.5392 6.00751 17.5279C6.01501 17.5167 6.01876 17.5092 6.03001 17.5017C6.14626 17.4154 6.26251 17.3254 6.37126 17.2354C6.38251 17.2279 6.39376 17.2204 6.40501 17.2204C6.41626 17.2204 6.43126 17.2204 6.44251 17.2242C10.05 18.8704 13.9575 18.8704 17.5238 17.2242C17.535 17.2204 17.55 17.2167 17.5613 17.2167C17.5725 17.2167 17.5875 17.2242 17.595 17.2317C17.7038 17.3217 17.82 17.4154 17.9363 17.5017C17.9438 17.5092 17.9513 17.5167 17.9588 17.5279C17.9663 17.5392 17.9663 17.5504 17.9663 17.5617C17.9663 17.5729 17.9625 17.5842 17.955 17.5954C17.9475 17.6067 17.94 17.6142 17.9325 17.6179C17.3813 17.9404 16.8075 18.2142 16.2113 18.4354C16.2038 18.4392 16.1925 18.4429 16.185 18.4504C16.1775 18.4579 16.1738 18.4654 16.17 18.4767C16.1663 18.4879 16.1663 18.4954 16.1663 18.5067C16.1663 18.5179 16.17 18.5254 16.1738 18.5367C16.5038 19.1742 16.8788 19.7854 17.2988 20.3667C17.3063 20.3779 17.3213 20.3892 17.3325 20.3929C17.3438 20.3967 17.3625 20.3967 17.3738 20.3929C19.3575 19.7854 21.2213 18.8442 22.89 17.6104C22.8975 17.6029 22.905 17.5954 22.9088 17.5879C22.9125 17.5804 22.9163 17.5692 22.9163 17.5579C23.3775 12.8029 22.1475 8.67418 19.6575 5.01418L19.6688 5.01793ZM8.34376 15.0567C7.25626 15.0567 6.36376 14.0592 6.36376 12.8367C6.36376 11.6142 7.24126 10.6167 8.34376 10.6167C9.45751 10.6167 10.3425 11.6217 10.3238 12.8367C10.3238 14.0629 9.44626 15.0567 8.34376 15.0567ZM15.6713 15.0567C14.5838 15.0567 13.6913 14.0592 13.6913 12.8367C13.6913 11.6142 14.5688 10.6167 15.6713 10.6167C16.785 10.6167 17.67 11.6217 17.6513 12.8367C17.6513 14.0629 16.7813 15.0567 15.6713 15.0567Z"/>
</svg>

<svg xmlns="http://www.w3.org/2000/svg" width="24" height="24" fill="currentColor" viewBox="0 0 24 24"><path d="M19.669 5.018c-.008-.011-.015-.023-.03-.026A18 18 0 0 0 15.15 3.6a.1.1 0 0 0-.041.004q-.018.007-.03.03c-.207.371-.394.758-.559 1.148a16.7 16.7 0 0 0-5.04 0 12 12 0 0 0-.566-1.148.1.1 0 0 0-.03-.03q-.017-.009-.041-.007c-1.55.266-3.06.735-4.49 1.39a.1.1 0 0 0-.03.027C1.467 9.282.684 13.448 1.066 17.558q.001.015.008.03c.003.011.01.015.018.022a18.2 18.2 0 0 0 5.505 2.783q.023.006.042 0a.1.1 0 0 0 .033-.026 13 13 0 0 0 1.125-1.83.1.1 0 0 0 .008-.03q.001-.016-.004-.03-.005-.018-.015-.023-.01-.008-.026-.015a12 12 0 0 1-1.721-.821l-.027-.023c-.007-.007-.011-.022-.011-.033q-.002-.018.008-.034c.007-.011.01-.019.022-.026.116-.087.233-.177.341-.267.012-.007.023-.015.034-.015q.018-.001.038.004c3.607 1.646 7.515 1.646 11.08 0a.1.1 0 0 1 .038-.007q.02.002.034.015c.109.09.225.183.341.27q.011.01.023.026.009.016.007.034a.06.06 0 0 1-.011.033.1.1 0 0 1-.022.023q-.827.484-1.722.817-.012.005-.026.015a.1.1 0 0 0-.015.027q-.005.014-.004.03.001.014.008.03.495.956 1.125 1.83a.1.1 0 0 0 .034.026c.01.004.03.004.04 0a18.3 18.3 0 0 0 5.517-2.783.1.1 0 0 0 .019-.022.1.1 0 0 0 .007-.03c.462-4.755-.768-8.884-3.259-12.544zM8.344 15.057c-1.088 0-1.98-.998-1.98-2.22s.877-2.22 1.98-2.22c1.114 0 1.999 1.005 1.98 2.22 0 1.226-.878 2.22-1.98 2.22m7.327 0c-1.087 0-1.98-.998-1.98-2.22s.878-2.22 1.98-2.22c1.114 0 1.999 1.005 1.98 2.22 0 1.226-.87 2.22-1.98 2.22"/></svg>
